assets/Bubbles/Flat/bubbles_flat.svg

<svg width="32" height="32" viewBox="0 0 32 32" fill="none" xmlns="http://www.w3.org/2000/svg">
<path d="M21.5 18C25.6421 18 29 14.6421 29 10.5C29 6.35786 25.6421 3 21.5 3C17.3579 3 14 6.35786 14 10.5C14 14.6421 17.3579 18 21.5 18Z" fill="#E0AEF8"/>
<path d="M10.75 14.375C10.75 16.6532 8.90317 18.5 6.625 18.5C4.34683 18.5 2.5 16.6532 2.5 14.375C2.5 12.0968 4.34683 10.25 6.625 10.25C8.90317 10.25 10.75 12.0968 10.75 14.375Z" fill="#E0AEF8"/>
<path d="M19.5989 24.5C19.5989 27.316 17.316 29.5989 14.5 29.5989C11.684 29.5989 9.40112 27.316 9.40112 24.5C9.40112 21.684 11.684 19.4011 14.5 19.4011C17.316 19.4011 19.5989 21.684 19.5989 24.5Z" fill="#E0AEF8"/>
<path d="M29 10.5C29 14.0281 26.5639 16.9872 23.2821 17.787C24.9278 16.6077 26 14.6791 26 12.5C26 8.91015 23.0899 6 19.5 6C17.321 6 15.3923 7.07225 14.213 8.71792C15.0128 5.43607 17.9719 3 21.5 3C25.6421 3 29 6.35786 29 10.5Z" fill="#C4BBF9"/>
<path d="M19.5 24.5C19.5 26.0548 18.7903 27.4439 17.6772 28.3609C17.8861 27.7797 18 27.1532 18 26.5C18 23.4624 15.5376 21 12.5 21C11.8468 21 11.2203 21.1139 10.639 21.3228C11.5561 20.2097 12.9452 19.5 14.5 19.5C17.2614 19.5 19.5 21.7386 19.5 24.5Z" fill="#C4BBF9"/>
<path d="M29.5 10.5C29.5 13.9844 27.2723 16.9485 24.1635 18.0459C26.4529 16.7619 28 14.3116 28 11.5C28 7.35786 24.6421 4 20.5 4C17.6883 4 15.2381 5.54715 13.954 7.83654C15.0514 4.72769 18.0155 2.5 21.5 2.5C25.9182 2.5 29.5 6.08172 29.5 10.5Z" fill="#AEDDFF"/>
<path d="M19.7969 24.2162C19.7969 25.3601 19.3936 26.4109 18.7201 27.237C18.9017 26.691 19 26.107 19 25.5C19 22.4624 16.5376 20 13.5 20C13.116 20 12.7412 20.0394 12.3794 20.1142C13.121 19.662 13.9946 19.4011 14.9297 19.4011C17.6178 19.4011 19.7969 21.5569 19.7969 24.2162Z" fill="#AEDDFF"/>
<path d="M29.4999 8C29.7959 8.78448 29.9347 10.1243 29.9855 10.9996C29.8755 12.897 29.1432 14.6275 27.9895 15.9899C26.5085 17.2439 24.5925 18.5 22.4999 18.5C22.3229 18.5 22.147 18.3576 21.9726 18.2164C21.8138 18.0878 21.6562 17.9602 21.4999 17.9418C25.7231 17.4469 28.9999 13.8562 28.9999 9.50003C28.9999 8.53244 28.8383 7.60261 28.5404 6.73608C28.9999 7 29.2635 7.3734 29.4999 8Z" fill="#FCD53F"/>
<path d="M10.9931 14.7496C10.9875 13.826 10.6534 12.8627 10.2458 12.5056C10.4104 12.9732 10.4999 13.4762 10.4999 14.0001C10.4999 16.3164 8.74995 18.2239 6.5 18.4726C6.5773 18.4812 6.6458 18.5222 6.71428 18.5633C6.79122 18.6094 6.86816 18.6556 6.95756 18.6556C8.07293 18.6556 9.06514 18.2854 9.92215 17.4223C10.7144 16.6244 11 15.874 10.9931 14.7496Z" fill="#FCD53F"/>
<path d="M19.1466 22.0559C19.1949 22.132 19.2416 22.203 19.2866 22.2714C19.4726 22.5544 19.6291 22.7924 19.745 23.1541C19.8905 23.608 19.9721 24.2532 19.9944 24.7499C19.9365 26.0435 19.4317 27.2208 18.6307 28.1312C17.662 28.9832 16.3395 29.6941 14.948 29.6941C14.8603 29.6941 14.7871 29.6397 14.7138 29.5853C14.646 29.5349 14.5781 29.4845 14.4987 29.4774C17.3026 29.2253 19.4999 26.8691 19.4999 23.9997C19.4999 23.3154 19.375 22.6603 19.1466 22.0559Z" fill="#FCD53F"/>
<path d="M29.9856 11C29.9952 10.8346 30 10.6679 30 10.5C30 8.04319 28.9577 5.82978 27.291 4.27795C25.9269 3.34543 24.2772 2.80005 22.5 2.80005C21.749 2.80005 21.0207 2.89745 20.3271 3.08031C20.7105 3.02739 21.1021 3.00005 21.5 3.00005C26.0266 3.00005 29.7267 6.53836 29.9856 11Z" fill="#FF6DC6"/>
<path d="M11 14.5001C11 14.5838 10.9977 14.667 10.9932 14.7495C10.8677 12.4636 9.03606 10.6321 6.74999 10.5069C6.79014 10.5047 6.82851 10.4836 6.86696 10.4624C6.90775 10.44 6.94863 10.4175 6.99181 10.4175C8.66187 10.5069 9.13592 10.9059 9.92216 11.5779C10.5942 12.3641 11 13.3847 11 14.5001Z" fill="#FF6DC6"/>
<path d="M19.9944 24.7502C19.9981 24.6673 20 24.5839 20 24.5001C20 23.1085 19.4832 21.8377 18.6311 20.869C17.6773 19.9687 16.5385 19.3779 15.1229 19.3181C15.0807 19.3181 15.0065 19.366 14.9331 19.4133C14.8626 19.4588 14.7929 19.5038 14.7527 19.5055C17.5902 19.6339 19.8676 21.9123 19.9944 24.7502Z" fill="#FF6DC6"/>
<path d="M15 29.5C16.3916 29.5 17.6625 28.9832 18.6312 28.131C17.6233 29.2769 16.1461 30 14.5 30C13.0491 30 11.7294 29.4382 10.7467 28.5203C9.49997 26.8685 9.26615 25.8102 9.49997 24C9.49997 27.0376 11.9624 29.5 15 29.5Z" fill="#FF6DC6"/>
<path d="M6.99998 18.5C8.11535 18.5 9.13594 18.0942 9.92218 17.4222C9.09682 18.3879 7.86988 19 6.49998 19C5.18777 19 4.00675 18.4383 3.18419 17.5423C2.60279 16.559 2.36462 15.6482 2.36462 14.4751C2.38643 14.3988 2.39759 14.3397 2.40768 14.2863C2.42512 14.1941 2.43937 14.1187 2.49998 14C2.49998 16.4853 4.51469 18.5 6.99998 18.5Z" fill="#FF6DC6"/>
<path d="M16.0102 16.9896C17.4912 18.2438 19.4073 19.0001 21.5 19.0001C24.1018 19.0001 26.4305 17.8311 27.9897 15.9898C26.5087 17.2438 24.5926 18.0001 22.5 18.0001C18.1439 18.0001 14.5531 14.7232 14.0582 10.5001C14.0399 10.6564 13.9122 10.814 13.7836 10.9728C13.6424 11.1471 13.5 11.3229 13.5 11.5C13.5 13.5926 14.7562 15.5086 16.0102 16.9896Z" fill="#FF6DC6"/>
<path d="M24.9686 10.9687C25.2209 10.9348 25.4701 10.8735 25.7115 10.7846C25.7859 10.7572 25.8596 10.7272 25.9324 10.6946C26.46 9.42491 26.2075 7.9076 25.1749 6.87498C24.1184 5.81849 22.5545 5.57861 21.2676 6.15534C21.1502 6.43779 21.0715 6.7325 21.0313 7.0314C22.076 6.89103 23.1719 7.2223 23.9748 8.02519C24.7777 8.82809 25.109 9.92403 24.9686 10.9687Z" fill="#EBCAFF"/>
<path d="M8.82323 14.8232C8.70434 14.877 8.57925 14.9195 8.44933 14.9493C8.48249 14.8049 8.5 14.6545 8.5 14.5C8.5 13.3954 7.60457 12.5 6.5 12.5C6.3455 12.5 6.21094 12.5195 6.05066 12.5507C6.09766 12.3281 6.17676 12.1767 6.17676 12.1767C6.42782 12.0632 6.70653 12 6.99999 12C8.10456 12 8.99999 12.8954 8.99999 14C8.99999 14.2935 8.93678 14.5722 8.82323 14.8232Z" fill="#EBCAFF"/>
<path d="M16.0598 24.9944C16.34 24.9236 16.5909 24.8093 16.8104 24.6618C16.9804 23.6993 16.4826 22.8173 15.7467 22.3141C15.0109 21.8109 13.7989 21.5999 13.0531 22.1033C13.0184 22.2655 13 22.4356 13 22.6125C13 22.7045 13.0051 22.7952 13.0149 22.8846C13.1498 22.8637 13.2879 22.8529 13.4286 22.8529C14.7256 22.8529 15.8079 23.772 16.0598 24.9944Z" fill="#EBCAFF"/>
<path d="M26.1249 5.87498C24.903 4.6531 23.0025 4.52352 21.6367 5.48622C21.4704 5.7221 21.3366 5.97393 21.2355 6.23547C22.4884 5.75093 23.9639 6.01414 24.9749 7.02511C25.9859 8.03608 26.2491 9.51165 25.7645 10.7645C26.0259 10.6635 26.2776 10.5298 26.5133 10.3637C27.4764 8.9978 27.3469 7.09699 26.1249 5.87498Z" fill="#EFD5FF"/>
<path d="M9.14202 14.6421C9.04203 14.7118 8.93539 14.7726 8.82323 14.8233C8.93678 14.5722 8.99999 14.2935 8.99999 14C8.99999 12.8955 8.10456 12 6.99999 12C6.70653 12 6.42782 12.0633 6.17676 12.1768C6.24219 12.0469 6.29688 11.9493 6.35797 11.8579C6.68176 11.6323 7.06816 11.4113 7.49272 11.4113C8.0001 11.4113 8.61197 11.5466 8.96458 11.8579C9.37959 12.2244 9.6122 12.8748 9.6122 13.472C9.6122 13.8966 9.36766 14.3183 9.14202 14.6421Z" fill="#EFD5FF"/>
<path d="M16.7415 24.7069C17.0113 24.5411 17.2466 24.3247 17.4341 24.0708C17.9701 23.3453 17.371 21.9121 16.7423 21.3271C15.9331 20.5743 14.2913 20.4843 13.4795 21.155C13.2655 21.4449 13.1137 21.7835 13.0439 22.1511C13.3562 22.024 13.6978 21.954 14.0558 21.954C15.5395 21.954 16.7423 23.1567 16.7423 24.6404C16.7423 24.6627 16.742 24.6848 16.7415 24.7069Z" fill="#EFD5FF"/>
<path d="M26.9748 9.97487C26.8036 10.1462 26.6189 10.296 26.4243 10.4243C27.3202 9.06595 27.1704 7.22067 25.9748 6.02513C24.7793 4.82958 22.934 4.67976 21.5756 5.57566C21.704 5.38104 21.8538 5.19641 22.0251 5.02513C23.3919 3.65829 25.608 3.65829 26.9748 5.02513C28.3417 6.39196 28.3417 8.60804 26.9748 9.97487Z" fill="white"/>
<path d="M9.14195 14.6421C9.66057 14.2808 9.99995 13.68 9.99995 13C9.99995 11.8954 9.10452 11 7.99995 11C7.31998 11 6.71927 11.3393 6.35791 11.8579C6.6817 11.6323 7.07536 11.5 7.49991 11.5C8.60448 11.5 9.49991 12.3954 9.49991 13.5C9.49991 13.9246 9.3676 14.3183 9.14195 14.6421Z" fill="white"/>
<path d="M17.3629 24.1618C17.7068 23.7391 17.913 23.1999 17.913 22.6125C17.913 21.2558 16.8131 20.156 15.4564 20.156C14.6246 20.156 13.8893 20.5695 13.4449 21.2022C13.8303 20.9885 14.2737 20.8668 14.7456 20.8668C16.2293 20.8668 17.4321 22.0696 17.4321 23.5533C17.4321 23.7626 17.4082 23.9663 17.3629 24.1618Z" fill="white"/>
<path d="M22.5 3C24.5926 3 26.5087 3.75622 27.9897 5.0103C26.4305 3.16895 24.1018 2 21.5 2C16.8056 2 13 5.80558 13 10.5C13 13.1018 14.1689 15.4305 16.0103 16.9897C14.7562 15.5087 14 13.5926 14 11.5C14 6.80558 17.8056 3 22.5 3Z" fill="#26C9FC"/>
<path d="M9.9222 11.5778C9.13597 10.9058 8.11537 10.5 7 10.5C4.51472 10.5 2.5 12.5147 2.5 15C2.5 16.1154 2.90579 17.136 3.5778 17.9222C2.61213 17.0968 2 15.8699 2 14.5C2 12.0147 4.01472 10 6.5 10C7.86991 10 9.09685 10.6121 9.9222 11.5778Z" fill="#26C9FC"/>
<path d="M18.6311 20.8689C17.6624 20.0168 16.3916 19.5 15 19.5C11.9624 19.5 9.5 21.9624 9.5 25C9.5 26.3916 10.0168 27.6624 10.8689 28.6311C9.72307 27.6231 9 26.146 9 24.5C9 21.4624 11.4624 19 14.5 19C16.146 19 17.6231 19.7231 18.6311 20.8689Z" fill="#26C9FC"/>
</svg>

<svg xmlns="http://www.w3.org/2000/svg" width="32" height="32" fill="none"><path fill="#E0AEF8" d="M21.5 18a7.5 7.5 0 1 0 0-15 7.5 7.5 0 0 0 0 15ZM10.75 14.375a4.125 4.125 0 1 1-8.25 0 4.125 4.125 0 0 1 8.25 0ZM19.599 24.5a5.099 5.099 0 1 1-10.198 0 5.099 5.099 0 0 1 10.198 0Z"/><path fill="#C4BBF9" d="M29 10.5a7.503 7.503 0 0 1-5.718 7.287 6.5 6.5 0 1 0-9.07-9.07A7.5 7.5 0 0 1 29 10.5ZM19.5 24.5a4.99 4.99 0 0 1-1.823 3.86 5.5 5.5 0 0 0-7.038-7.038A5 5 0 0 1 19.5 24.5Z"/><path fill="#AEDDFF" d="M29.5 10.5a8.003 8.003 0 0 1-5.337 7.546 7.5 7.5 0 1 0-10.21-10.21A8 8 0 0 1 29.5 10.5ZM19.797 24.216a4.764 4.764 0 0 1-1.077 3.021 5.5 5.5 0 0 0-6.34-7.123 4.884 4.884 0 0 1 2.55-.713c2.688 0 4.867 2.156 4.867 4.815Z"/><path fill="#FCD53F" d="M29.5 8c.296.784.435 2.124.485 3a8.463 8.463 0 0 1-1.995 4.99c-1.481 1.254-3.397 2.51-5.49 2.51-.177 0-.353-.142-.527-.284-.16-.128-.317-.256-.473-.274a8.501 8.501 0 0 0 7.04-11.206c.46.264.724.637.96 1.264ZM10.993 14.75c-.005-.924-.34-1.887-.747-2.244A4.5 4.5 0 0 1 6.5 18.473c.077.008.146.05.214.09.077.046.154.093.244.093 1.115 0 2.107-.37 2.964-1.234.792-.798 1.078-1.548 1.071-2.672ZM19.147 22.056c.048.076.095.147.14.215.186.283.342.521.458.883.145.454.227 1.1.25 1.596a5.477 5.477 0 0 1-1.364 3.381c-.969.852-2.291 1.563-3.683 1.563-.088 0-.16-.054-.234-.109-.068-.05-.136-.1-.215-.108a5.5 5.5 0 0 0 4.648-7.421Z"/><path fill="#FF6DC6" d="M29.986 11a8.477 8.477 0 0 0-2.695-6.722A8.46 8.46 0 0 0 22.5 2.8c-.751 0-1.48.097-2.173.28A8.5 8.5 0 0 1 29.986 11ZM11 14.5c0 .084-.002.167-.007.25a4.5 4.5 0 0 0-4.243-4.243.287.287 0 0 0 .117-.045c.04-.022.082-.044.125-.044 1.67.089 2.144.488 2.93 1.16A4.482 4.482 0 0 1 11 14.5ZM19.994 24.75a5.48 5.48 0 0 0-1.363-3.881c-.954-.9-2.093-1.491-3.508-1.55-.042 0-.116.047-.19.094-.07.046-.14.09-.18.093a5.5 5.5 0 0 1 5.241 5.244ZM15 29.5a5.479 5.479 0 0 0 3.631-1.369A5.487 5.487 0 0 1 14.5 30a5.48 5.48 0 0 1-3.753-1.48C9.5 26.87 9.267 25.81 9.5 24a5.5 5.5 0 0 0 5.5 5.5ZM7 18.5a4.482 4.482 0 0 0 2.922-1.078A4.49 4.49 0 0 1 6.5 19a4.488 4.488 0 0 1-3.316-1.458c-.581-.983-.82-1.894-.82-3.067.022-.076.034-.135.044-.189.017-.092.031-.167.092-.286A4.5 4.5 0 0 0 7 18.5ZM16.01 16.99A8.466 8.466 0 0 0 21.5 19a8.482 8.482 0 0 0 6.49-3.01 8.501 8.501 0 0 1-13.931-5.49c-.02.156-.147.314-.275.473-.142.174-.284.35-.284.527 0 2.093 1.256 4.009 2.51 5.49Z"/><path fill="#EBCAFF" d="M24.969 10.969a3.497 3.497 0 0 0 .963-.274 3.501 3.501 0 0 0-4.664-4.54 3.497 3.497 0 0 0-.237.876c1.045-.14 2.14.191 2.944.994a3.494 3.494 0 0 1 .994 2.944ZM8.823 14.823a1.98 1.98 0 0 1-.374.126A2 2 0 0 0 6.05 12.55c.048-.222.127-.373.127-.373a2 2 0 0 1 2.646 2.646ZM16.06 24.994c.28-.07.53-.185.75-.332.17-.963-.327-1.845-1.063-2.348-.736-.503-1.948-.714-2.694-.21a2.43 2.43 0 0 0-.038.78 2.687 2.687 0 0 1 3.045 2.11Z"/><path fill="#EFD5FF" d="M26.125 5.875a3.501 3.501 0 0 0-4.488-.389c-.167.236-.3.488-.402.75a3.5 3.5 0 0 1 4.53 4.529c.26-.101.513-.235.748-.401a3.501 3.501 0 0 0-.388-4.489ZM9.142 14.642c-.1.07-.207.13-.319.181a2 2 0 0 0-2.646-2.646c.065-.13.12-.228.181-.32.324-.225.71-.446 1.135-.446.507 0 1.119.136 1.472.447.415.366.647 1.017.647 1.614 0 .425-.244.846-.47 1.17ZM16.741 24.707c.27-.166.506-.382.693-.636.536-.726-.063-2.159-.692-2.744-.809-.753-2.45-.843-3.263-.172-.213.29-.365.628-.435.996a2.686 2.686 0 0 1 3.698 2.556Z"/><path fill="#fff" d="M26.975 9.975a3.506 3.506 0 0 1-.55.45 3.501 3.501 0 0 0-4.85-4.85 3.5 3.5 0 1 1 5.4 4.4ZM9.142 14.642a2 2 0 1 0-2.784-2.784 2 2 0 0 1 2.784 2.784ZM17.363 24.162a2.457 2.457 0 1 0-3.918-2.96 2.687 2.687 0 0 1 3.918 2.96Z"/><path fill="#26C9FC" d="M22.5 3c2.093 0 4.009.756 5.49 2.01a8.5 8.5 0 1 0-11.98 11.98A8.5 8.5 0 0 1 22.5 3ZM9.922 11.578a4.5 4.5 0 0 0-6.344 6.344 4.5 4.5 0 1 1 6.344-6.344ZM18.631 20.869a5.5 5.5 0 0 0-7.762 7.762 5.5 5.5 0 1 1 7.762-7.762Z"/></svg>
